X:012
T:Belles of St. Louis (reel) 
B:CRE3.128 (Cloig St. Louis)
F:file ID: cre.3/012belles
N:1:This tune is sometimes played in F. Might be a Lad O'Beirne tune.
N:2:Breathnach's Gaelic title = "Bells", not "Belles", of St.Louis.
I prefer "Belles"!
L:1/8
R:reel
Q:180
M:C
K:G
G2DG BGG2|Bdef gdBG|A2EA cAA2|(3Bcd ef gdBA|
GBDG BGG2|Bdef gdBd|ceAc BAGB|AGFA G3z:|
g2dg bgg2|dgba gfed|a2fa c'aa2|eac'a agfa|
gbeg bgeb|dgba gfed|cEAc BAGB|AGFA G3z:|

%%%

